build/img/sprite/icon-paw.svg

<svg width="21" height="18" viewBox="0 0 21 18" xmlns="http://www.w3.org/2000/svg">
  <path d="M16.8031 6.52459C13.8387 8.22475 14.3435 13.1874 17.5591 13.1874C18.9459 13.1874 20.1462 12.1449 20.6806 10.812C21.9148 7.73361 19.3483 5.06439 16.8031 6.52459Z" />
  <path d="M13.7585 7.13911C17.3153 7.13911 18.3803 1.0992 15.0011 0.106215C13.4616 -0.346048 11.7109 0.739136 11.1486 2.72287C10.5177 4.94631 11.7589 7.13911 13.7585 7.13911Z" />
  <path d="M12.8437 17.8903C12.3498 17.7537 11.4731 17.6658 10.5555 17.6531C9.58551 17.6389 8.56997 17.7084 7.9129 17.8903C6.13824 18.3847 3.72348 17.1886 4.25331 14.7045C4.74338 12.408 6.50422 12.5389 6.92062 10.3625C7.34017 8.16298 8.97061 7.10147 10.5555 7.18444C12.0223 7.26144 13.4499 8.31922 13.8389 10.363C14.2529 12.5409 16.0101 12.4088 16.4994 14.7045C17.0312 17.1906 14.6114 18.3802 12.8437 17.8903Z" />
  <path d="M7.49859 7.13932C8.50467 7.13932 9.36873 6.55499 9.84887 5.66068C11.2762 3.00141 8.93197 -0.680001 6.25571 0.10841C2.87074 1.10414 3.94372 7.13932 7.49859 7.13932Z" />
  <path d="M5.89091 11.2099C7.03297 8.41561 4.32591 5.00232 1.74052 6.07629C-1.37374 7.36979 -0.000207816 12.9487 3.42404 12.9487C4.52296 12.9487 5.45682 12.2722 5.89091 11.2099Z" />
  <path d="M12.8437 17.8902C12.3497 17.7537 11.473 17.6657 10.5554 17.653V7.1844C12.0223 7.2614 13.4498 8.31918 13.8388 10.363C14.2528 12.5408 16.01 12.4087 16.4994 14.7045C17.0311 17.1905 14.6113 18.3801 12.8437 17.8902Z" />
</svg>

<svg width="21" height="18" fill="none" xmlns="http://www.w3.org/2000/svg"><path d="M16.803 6.525c-2.964 1.7-2.46 6.662.756 6.662 1.387 0 2.587-1.042 3.122-2.375 1.234-3.078-1.333-5.748-3.878-4.287zm-3.045.615c3.557 0 4.622-6.04 1.243-7.034-1.54-.452-3.29.633-3.852 2.617-.631 2.223.61 4.416 2.61 4.416z"/><path d="M12.844 17.89c-.494-.136-1.37-.224-2.288-.237-.97-.014-1.986.055-2.643.237-1.775.495-4.19-.701-3.66-3.186.49-2.296 2.251-2.165 2.668-4.341.42-2.2 2.05-3.262 3.635-3.179 1.466.077 2.894 1.135 3.283 3.179.414 2.178 2.171 2.046 2.66 4.341.532 2.487-1.888 3.676-3.655 3.186zM7.499 7.14c1.006 0 1.87-.585 2.35-1.48C11.276 3.002 8.932-.68 6.256.109 2.87 1.104 3.944 7.14 7.499 7.14z"/><path d="M5.89 11.21c1.143-2.794-1.564-6.208-4.15-5.134C-1.373 7.37 0 12.95 3.425 12.95c1.099 0 2.033-.677 2.467-1.74zm6.954 6.68c-.494-.136-1.371-.224-2.289-.237V7.184c1.467.077 2.895 1.135 3.284 3.179.414 2.178 2.171 2.046 2.66 4.341.532 2.486-1.888 3.676-3.655 3.186z"/></svg>
